X:1
T:Oh Be Ready!
T: Joseph Lincoln Hall
T:Oh Be Ready!
T:Public Domain
T:Public Domain
T:Public Domain
C:Joseph Lincoln Hall
Z:Public Domain
%%score ( 1 2 ) ( 3 4 )
L:1/8
M:4/4
K:F
V:1 treble 
V:2 treble 
V:3 bass 
V:4 bass 
V:1
 C>C | [CF]2 [CF]2 [B,D]<[A,C] [CF]>[CG] | (F2 F>F F2) C>C | [CF]2 [CF]2 [B,D]<[A,C] [CF]>[FA] | %4
w: 1.~When the|com- eth by and by, When|the * * * Bride- groom|and by, Will your lamps be|
w: 2.~When the|com- eth by and by, When|the * * * Bride- groom|and by, Oh be rea- dy|
w: 3.~When the|com- eth by and by, When|the * * * Bride- groom|and by, Will your wear- ied|
w: 4.~When the|com- eth by and by, When|the * * * Bride- groom|and by, Will the sor- rows|
w: 5.~When the|com- eth by and by, When|the * * * Bride- groom|and by, When the Lord shall|
w: 6.~When the|com- eth by and by, When|the * * * Bride- groom|and by, Will you join the|
 (E2 E>E E2) [FA]>[GB] | [Ac]>[Bd] [Ac]>[FA] [Ac]2 [FA]>[CG] | %6
w: burn- * * * ing bright,|your robes be pure and white, When|
w: for * * * that day,|your sins all washed a- way, When|
w: heart * * * re- joice|the sound of Je- sus’ voice, When|
w: of * * * the past|be changed to joy at last When|
w: call * * * His own,|you stand be- fore the throne, When|
w: ran- * * * somed host,|be found a- mong the lost, When|
 [DF]>[DG] [DF]>[B,D] [DF]2 [DF]>[DG] | [CA]2 [FA]2 [EG]<[EG] [EA]>[EG] | F6 z2 || %9
w: the Bride- groom com- eth by and|by? * * * * *||
w: the Bride- groom com- eth by and|by. * * * * *||
w: the Bride- groom com- eth by and|by? Oh be rea- dy! Oh|be|
w: the Bride- groom com- eth by and|by? * * * * *||
w: the Bride- groom com- eth by and|by? * * * * *||
w: the Bride- groom com- eth by and|by? * * * * *||
"^Refrain" [Fc]3 [Fd] [Fc] [FA]3 | [DG]3 [DF] [B,D] [DF]3 | C<C [CF]>[CG] [FA]2 [Fc]2 | [EG]6 z2 | %13
w: ||||
w: ||||
w: dy! Rea- dy when|the Bride- groom comes;|Oh be rea- dy! Oh be|Rea-|
w: ||||
w: ||||
w: ||||
 [Fc]3 [Fd] [Fc] [FA]3 | [DG]3 [DF] [B,D] [DF]3 | C<C [CF]>[CG] [FA]2 [EG]2 | [CF]6 |] %17
w: ||||
w: ||||
w: dy when the Bride-|groom comes. * *|||
w: ||||
w: ||||
w: ||||
V:2
 C>C | x8 | A6 C>C | x8 | G6 x2 | x8 | x8 | x8 | F6 x2 || x8 | x8 | C<C x6 | x8 | x8 | x8 | %15
w: Bride- groom||com- eth by||Will|||||||||||
w: Bride- groom||com- eth by||With|||||||||||
w: Bride- groom||com- eth by||At||||rea-|||rea- dy!||||
w: Bride- groom||com- eth by||All|||||||||||
w: Bride- groom||com- eth by||Can|||||||||||
w: Bride- groom||com- eth by||Or|||||||||||
 C<C x6 | x6 |] %17
w: ||
w: ||
w: ||
w: ||
w: ||
w: ||
V:3
 [F,A,]>[F,A,] | [F,A,]2 [F,A,]2 F,<F, [F,A,]>[F,B,] | ([F,C]2 [F,C]>[F,C] [F,C]2 [F,A,]>)[F,A,] | %3
 [F,A,]2 [F,A,]2 F,<F, [F,A,]>[F,C] | ([C,C]2 [C,C]>[C,C] [C,C]2) [F,C]>[F,C] | %5
 [F,F]>[F,F] [F,F]>[F,C] [F,F]2 [F,C]>[F,B,] | %6
 [B,,B,]>[B,,B,] [B,,B,]>[B,,F,] [B,,B,]2 [B,,B,]>[B,,B,] | %7
 [C,F,]2 [C,C]2 [C,B,]<[C,B,] [C,C]>[C,B,] | [F,A,]6 z2 || [F,A,]3 [F,B,] [F,A,] [F,C]3 | %10
 [B,,B,]3 [B,,B,] [B,,F,] [B,,B,]3 | [F,A,]<[F,A,] [F,A,]>[F,B,] [F,C]2 [A,C]2 | (C2 C>C C C3) | %13
 [F,A,]3 [F,B,] [F,A,] [F,C]3 | [B,,B,]3 [B,,B,] [B,,F,] [B,,B,]3 | %15
 [F,A,]<[F,A,] [F,A,]>[F,B,] [C,C]2 [C,B,]2 | [F,A,]6 |] %17
V:4
 x2 | x4 F,<F, x2 | x8 | x4 F,<F, x2 | x8 | x8 | x8 | x8 | x8 || x8 | x8 | x8 | C2 C>C C C3 | x8 | %14
 x8 | x8 | x6 |] %17

